svg/fluentui-system-icons/ic_fluent_emoji_32_filled.svg

<svg width="32" height="32" viewBox="0 0 32 32" fill="none" xmlns="http://www.w3.org/2000/svg">
<path d="M2 16C2 8.26801 8.26801 2 16 2C23.732 2 30 8.26801 30 16C30 23.732 23.732 30 16 30C8.26801 30 2 23.732 2 16ZM12 15C13.1046 15 14 14.1046 14 13C14 11.8954 13.1046 11 12 11C10.8954 11 10 11.8954 10 13C10 14.1046 10.8954 15 12 15ZM22 13C22 11.8954 21.1046 11 20 11C18.8954 11 18 11.8954 18 13C18 14.1046 18.8954 15 20 15C21.1046 15 22 14.1046 22 13ZM9.553 19.1056C9.05902 19.3526 8.85881 19.9532 9.10578 20.4472L9.10633 20.4483L9.10691 20.4495L9.10818 20.452L9.11117 20.4579L9.11896 20.4729C9.12497 20.4843 9.13261 20.4987 9.14194 20.5156C9.16059 20.5495 9.18603 20.5941 9.21867 20.6479C9.28388 20.7553 9.37817 20.8998 9.5049 21.0688C9.75802 21.4062 10.1433 21.8451 10.688 22.2809C11.79 23.1625 13.5073 24 16.0002 24C18.4931 24 20.2104 23.1625 21.3124 22.2809C21.8571 21.8451 22.2424 21.4062 22.4955 21.0688C22.6222 20.8998 22.7165 20.7553 22.7818 20.6479C22.8144 20.5941 22.8398 20.5495 22.8585 20.5156C22.8678 20.4987 22.8755 20.4843 22.8815 20.4729L22.8893 20.4579L22.8922 20.452L22.8935 20.4495L22.8941 20.4483L22.8946 20.4472C23.1416 19.9532 22.9414 19.3526 22.4474 19.1056C21.9559 18.8598 21.3589 19.0568 21.1096 19.5453L21.1061 19.5518C21.1005 19.5618 21.0894 19.5816 21.0722 19.6099C21.0378 19.6666 20.9797 19.7565 20.8955 19.8688C20.7268 20.0938 20.4558 20.4049 20.063 20.7191C19.29 21.3375 18.0073 22 16.0002 22C13.9931 22 12.7104 21.3375 11.9374 20.7191C11.5446 20.4049 11.2737 20.0938 11.1049 19.8688C11.0207 19.7565 10.9626 19.6666 10.9282 19.6099C10.9111 19.5816 10.8999 19.5618 10.8944 19.5518L10.8909 19.5453C10.6416 19.0568 10.0445 18.8598 9.553 19.1056Z" fill="#212121"/>
</svg>

<svg xmlns="http://www.w3.org/2000/svg" width="32" height="32"><path d="M2 16C2 8.268 8.268 2 16 2s14 6.268 14 14-6.268 14-14 14S2 23.732 2 16Zm10-1a2 2 0 1 0 0-4 2 2 0 0 0 0 4Zm10-2a2 2 0 1 0-4 0 2 2 0 0 0 4 0ZM9.553 19.106a1 1 0 0 0-.447 1.341v.003l.002.002.003.006.008.015a2.448 2.448 0 0 0 .1.175c.065.107.16.252.286.42a6.76 6.76 0 0 0 1.183 1.213C11.79 23.163 13.508 24 16 24c2.493 0 4.21-.837 5.312-1.72a6.76 6.76 0 0 0 1.183-1.211 5.275 5.275 0 0 0 .386-.596l.008-.015.003-.006.002-.003v-.002a1 1 0 0 0-1.784-.902l-.004.007-.034.058a3.242 3.242 0 0 1-.177.259c-.168.225-.44.536-.832.85C19.29 21.337 18.007 22 16 22c-2.007 0-3.29-.663-4.063-1.28a4.76 4.76 0 0 1-.832-.851 3.242 3.242 0 0 1-.21-.317l-.004-.007a1 1 0 0 0-1.338-.44Z"/></svg>
